hero/solid/arrow-trending-up.svg

<svg width="24" height="24" viewBox="0 0 24 24" fill="none" xmlns="http://www.w3.org/2000/svg">
<path fill-rule="evenodd" clip-rule="evenodd" d="M15.2194 6.26793C15.3679 5.88122 15.8017 5.68808 16.1884 5.83652L22.1297 8.11716C22.3154 8.18844 22.4651 8.33057 22.546 8.51229C22.627 8.694 22.6324 8.90042 22.5611 9.08612L20.2804 15.0274C20.132 15.4141 19.6982 15.6072 19.3115 15.4588C18.9248 15.3104 18.7316 14.8765 18.8801 14.4898L20.5118 10.239L19.4253 10.7227C16.9721 11.815 15.1036 13.6758 13.975 15.8962C13.8662 16.1104 13.6614 16.2594 13.4241 16.2971C13.1869 16.3348 12.946 16.2566 12.7761 16.0868L9 12.3107L2.78033 18.5303C2.48744 18.8232 2.01256 18.8232 1.71967 18.5303C1.42678 18.2374 1.42678 17.7626 1.71967 17.4697L8.46967 10.7197C8.61032 10.579 8.80109 10.5 9 10.5C9.19891 10.5 9.38968 10.579 9.53033 10.7197L13.1363 14.3257C14.4369 12.2046 16.3711 10.4406 18.8152 9.35239L19.9017 8.86864L15.6508 7.23689C15.2641 7.08845 15.071 6.65463 15.2194 6.26793Z" fill="#0F172A"/>
</svg>

<svg viewBox="0 0 24 24" xmlns="http://www.w3.org/2000/svg"><path fill-rule="evenodd" d="M15.22 6.26h-.001c.14-.39.58-.58.96-.44l5.94 2.28v-.001c.38.14.57.58.43.96 -.01 0-.01 0-.01 0l-2.28 5.94v0c-.14.39-.57.59-.96.45 -.4-.14-.6-.57-.46-.96 0-.02 0-.03.01-.04l1.63-4.26 -1.09.48v0c-2.36 1.04-4.29 2.87-5.45 5.17h-.001c-.19.36-.64.51-1.01.32 -.08-.04-.14-.09-.2-.14l-3.78-3.78 -6.22 6.22H2.72c-.29.3-.76.31-1.06.03 -.31-.29-.32-.76-.04-1.06 .01-.02.02-.03.03-.04l6.75-6.75v0c.29-.3.76-.3 1.06-.001l3.606 3.6h-.001c1.34-2.2 3.32-3.93 5.68-4.98l1.08-.49 -4.26-1.64 0 0c-.39-.15-.59-.59-.44-.97 0-.01 0-.01 0-.01Z"/></svg>
